Newaita-dark/mimetypes/32/application-x-cbr.svg

<svg height="32" viewBox="0 0 32 32" width="32" xmlns="http://www.w3.org/2000/svg" xmlns:xlink="http://www.w3.org/1999/xlink"><linearGradient id="a" gradientUnits="userSpaceOnUse" x1="15.87652" x2="15.87652" y1="28.033936" y2="29.35698000003"><stop offset="0" stop-opacity=".27451"/><stop offset="1" stop-opacity="0"/></linearGradient><linearGradient id="b"><stop offset="0" stop-opacity=".313726"/><stop offset=".222222" stop-opacity=".27451"/><stop offset="1" stop-opacity="0"/></linearGradient><radialGradient id="c" cx="450.908936" cy="189.579361" gradientTransform="matrix(.00000017 -.0781325 -.140638 -.0000001 50.146086 63.595333)" gradientUnits="userSpaceOnUse" r="21.166656" xlink:href="#b"/><radialGradient id="d" cx="450.908936" cy="189.579361" gradientTransform="matrix(-.00000017 .0781325 .140638 .0000001 -18.393049 -7.52748)" gradientUnits="userSpaceOnUse" r="21.166656" xlink:href="#b"/><radialGradient id="e" cx="450.908936" cy="189.579361" gradientTransform="matrix(-.00000017 -.0781325 .140638 -.0000001 -18.393049 63.595333)" gradientUnits="userSpaceOnUse" r="21.166656" xlink:href="#b"/><radialGradient id="f" cx="450.908936" cy="189.579361" gradientTransform="matrix(.00000017 .0781325 -.140638 .0000001 50.146084 -7.527479)" gradientUnits="userSpaceOnUse" r="21.166656" xlink:href="#b"/><linearGradient id="g" gradientTransform="matrix(.0753497 0 0 .217412 -5.854013 33.641348)" gradientUnits="userSpaceOnUse" x1="306.916656" x2="305.954559" y1="-25.791676" y2="-141.414581"><stop offset="0" stop-color="#80cbc4"/><stop offset="1" stop-color="#b2dfdb"/></linearGradient><linearGradient id="h"><stop offset="0" stop-color="#26a69a"/><stop offset="1" stop-color="#4db6ac"/></linearGradient><linearGradient id="i" gradientTransform="matrix(4.556143 0 0 13.146184 -353.972656 2034.180176)" gradientUnits="userSpaceOnUse" x1="165.484848" x2="165.484848" xlink:href="#h" y1="-25.791672" y2="-141.414581"/><linearGradient id="j" gradientUnits="userSpaceOnUse" x1="16.53804650006" x2="16.53804650006" xlink:href="#h" y1="28.033934" y2="2.89610500006"/><path d="m7.9375 28.035156h15.878906v1.320313h-15.878906zm0 0" fill="url(#a)"/><path d="m23.816406 28.035156h2.644532v-1.324218h-2.644532zm0 0" fill="url(#c)"/><path d="m7.9375 28.035156h-2.644531v1.320313h2.644531zm0 0" fill="url(#d)"/><path d="m7.9375 28.035156h-2.644531v-1.324218h2.644531zm0 0" fill="url(#e)"/><path d="m23.816406 28.035156h2.644532v1.320313h-2.644532zm0 0" fill="url(#f)"/><path d="m6.613281 2.894531h18.523438c.730469 0 1.324219.59375 1.324219 1.324219v22.492188c0 .730468-.59375 1.324218-1.324219 1.324218h-18.523438c-.730469 0-1.320312-.59375-1.320312-1.324218v-22.492188c0-.730469.589843-1.324219 1.320312-1.324219zm0 0" fill="url(#g)"/><path d="m399.883094 175.022665c-44.169013 0-79.8349 35.665888-79.8349 80.071098v1360.027676c0 44.405211 35.665887 80.071098 79.8349 80.071098h120.224746v-1520.169872zm0 0" fill="url(#i)" stroke="#212121" stroke-linecap="round" stroke-width="11.338583" transform="scale(.016538)"/><path d="m6.613281 27.960938c-.730469 0-1.320312-.59375-1.320312-1.324219v-.164063c0 .730469.589843 1.320313 1.320312 1.320313h18.523438c.734375 0 1.324219-.589844 1.324219-1.320313v.164063c0 .730469-.589844 1.324219-1.324219 1.324219zm0 0" fill-opacity=".196078"/><path d="m6.613281 2.972656c-.730469 0-1.320312.589844-1.320312 1.320313v.167969c0-.734376.589843-1.324219 1.320312-1.324219h18.523438c.734375 0 1.324219.589843 1.324219 1.324219v-.167969c0-.730469-.589844-1.320313-1.324219-1.320313zm0 0" fill="#fff" fill-opacity=".392157"/><path d="m6.617188 2.800781c-.785157 0-1.417969.636719-1.417969 1.417969v22.492188c0 .785156.632812 1.417968 1.417969 1.417968h18.519531c.785156 0 1.417969-.632812 1.417969-1.417968v-22.492188c0-.78125-.632813-1.417969-1.417969-1.417969zm0 .1875h18.519531c.683593 0 1.230469.546875 1.230469 1.230469v22.492188c0 .683593-.546876 1.230468-1.230469 1.230468h-18.519531c-.683594 0-1.230469-.546875-1.230469-1.230468v-22.492188c0-.683594.546875-1.230469 1.230469-1.230469zm0 0" fill="#212121"/><path d="m12.238281 9.511719c-.550781 0-.992187.441406-.992187.992187v7.277344c0 .546875.441406.992188.992187.992188h7.335938l2.453125 2.449218c.414062.414063 1.121094.121094 1.121094-.464844v-2.039062c.390624-.136719.667968-.503906.667968-.9375v-7.277344c0-.550781-.445312-.992187-.992187-.992187zm0 0" fill="url(#j)"/><path d="m12.238281 9.511719c-.550781 0-.992187.441406-.992187.992187v.332032c0-.550782.441406-.992188.992187-.992188h10.585938c.546875 0 .992187.441406.992187.992188v-.332032c0-.550781-.445312-.992187-.992187-.992187zm0 0" fill-opacity=".235294"/><path d="m11.246094 17.835938v.273437c0 .550781.441406.992187.992187.992187h7.335938l2.453125 2.453126c.414062.414062 1.121094.121093 1.121094-.464844v-.277344c0 .585938-.707032.878906-1.121094.464844l-2.453125-2.449219h-7.335938c-.550781 0-.992187-.441406-.992187-.992187zm12.570312 0c0 .433593-.277344.800781-.667968.9375v.273437c.390624-.132813.667968-.5.667968-.9375zm0 0" fill="#fff" fill-opacity=".392157"/><path d="m195.793803-62.827032c-8.811659 0-15.873485 7.061826-15.873485 15.873484v116.426382c0 8.749165 7.061826 15.873484 15.873485 15.873484h117.363792l39.246252 39.183758c6.624368 6.624368 17.935787 1.937315 17.935787-7.436789v-32.621885c6.249404-2.187291 10.68648-8.06173 10.68648-14.998568v-116.426382c0-8.811658-7.12432-15.873484-15.873484-15.873484zm0 0" fill="none" stroke="#212121" stroke-linecap="round" stroke-linejoin="round" stroke-width="3" transform="matrix(.062506 0 0 .062506 0 13.438783)"/></svg>

<?xml version="1.0" encoding="UTF-8"?>
<svg xmlns="http://www.w3.org/2000/svg" xmlns:xlink="http://www.w3.org/1999/xlink" width="32px" height="32px" viewBox="0 0 32 32" version="1.1">
<defs>
<linearGradient id="linear0" gradientUnits="userSpaceOnUse" x1="254" y1="233.5" x2="254" y2="254.666672" gradientTransform="matrix(0.062506,0,0,0.062506,-0.00000381506,13.438785)">
<stop offset="0" style="stop-color:rgb(0%,0%,0%);stop-opacity:0.27451;"/>
<stop offset="1" style="stop-color:rgb(0%,0%,0%);stop-opacity:0;"/>
</linearGradient>
<radialGradient id="radial0" gradientUnits="userSpaceOnUse" cx="450.908936" cy="189.579361" fx="450.908936" fy="189.579361" r="21.166656" gradientTransform="matrix(0.00000017417,-0.0781325,-0.140638,-0.000000101539,50.146086,63.595333)">
<stop offset="0" style="stop-color:rgb(0%,0%,0%);stop-opacity:0.313726;"/>
<stop offset="0.222222" style="stop-color:rgb(0%,0%,0%);stop-opacity:0.27451;"/>
<stop offset="1" style="stop-color:rgb(0%,0%,0%);stop-opacity:0;"/>
</radialGradient>
<radialGradient id="radial1" gradientUnits="userSpaceOnUse" cx="450.908936" cy="189.579361" fx="450.908936" fy="189.579361" r="21.166656" gradientTransform="matrix(-0.00000017417,0.0781325,0.140638,0.000000101539,-18.393049,-7.52748)">
<stop offset="0" style="stop-color:rgb(0%,0%,0%);stop-opacity:0.313726;"/>
<stop offset="0.222222" style="stop-color:rgb(0%,0%,0%);stop-opacity:0.27451;"/>
<stop offset="1" style="stop-color:rgb(0%,0%,0%);stop-opacity:0;"/>
</radialGradient>
<radialGradient id="radial2" gradientUnits="userSpaceOnUse" cx="450.908936" cy="189.579361" fx="450.908936" fy="189.579361" r="21.166656" gradientTransform="matrix(-0.00000017417,-0.0781325,0.140638,-0.000000101539,-18.393049,63.595333)">
<stop offset="0" style="stop-color:rgb(0%,0%,0%);stop-opacity:0.313726;"/>
<stop offset="0.222222" style="stop-color:rgb(0%,0%,0%);stop-opacity:0.27451;"/>
<stop offset="1" style="stop-color:rgb(0%,0%,0%);stop-opacity:0;"/>
</radialGradient>
<radialGradient id="radial3" gradientUnits="userSpaceOnUse" cx="450.908936" cy="189.579361" fx="450.908936" fy="189.579361" r="21.166656" gradientTransform="matrix(0.00000017417,0.0781325,-0.140638,0.000000101539,50.146084,-7.527479)">
<stop offset="0" style="stop-color:rgb(0%,0%,0%);stop-opacity:0.313726;"/>
<stop offset="0.222222" style="stop-color:rgb(0%,0%,0%);stop-opacity:0.27451;"/>
<stop offset="1" style="stop-color:rgb(0%,0%,0%);stop-opacity:0;"/>
</radialGradient>
<linearGradient id="linear1" gradientUnits="userSpaceOnUse" x1="306.916656" y1="-25.791676" x2="305.954559" y2="-141.414581" gradientTransform="matrix(0.0753497,0,0,0.217412,-5.854013,33.641348)">
<stop offset="0" style="stop-color:rgb(50.196081%,79.607844%,76.862746%);stop-opacity:1;"/>
<stop offset="1" style="stop-color:rgb(69.803923%,87.450981%,85.882354%);stop-opacity:1;"/>
</linearGradient>
<linearGradient id="linear2" gradientUnits="userSpaceOnUse" x1="165.484848" y1="-25.791672" x2="165.484848" y2="-141.414581" gradientTransform="matrix(4.556143,0,0,13.146184,-353.972656,2034.180176)">
<stop offset="0" style="stop-color:rgb(14.901961%,65.098041%,60.392159%);stop-opacity:1;"/>
<stop offset="1" style="stop-color:rgb(30.19608%,71.372551%,67.450982%);stop-opacity:1;"/>
</linearGradient>
<linearGradient id="linear3" gradientUnits="userSpaceOnUse" x1="264.583344" y1="233.5" x2="264.583344" y2="-168.666656" gradientTransform="matrix(0.062506,0,0,0.062506,0,13.438783)">
<stop offset="0" style="stop-color:rgb(14.901961%,65.098041%,60.392159%);stop-opacity:1;"/>
<stop offset="1" style="stop-color:rgb(30.19608%,71.372551%,67.450982%);stop-opacity:1;"/>
</linearGradient>
</defs>
<g id="surface1">
<path style=" stroke:none;fill-rule:nonzero;fill:url(#linear0);" d="M 7.9375 28.035156 L 23.816406 28.035156 L 23.816406 29.355469 L 7.9375 29.355469 Z M 7.9375 28.035156 "/>
<path style=" stroke:none;fill-rule:nonzero;fill:url(#radial0);" d="M 23.816406 28.035156 L 26.460938 28.035156 L 26.460938 26.710938 L 23.816406 26.710938 Z M 23.816406 28.035156 "/>
<path style=" stroke:none;fill-rule:nonzero;fill:url(#radial1);" d="M 7.9375 28.035156 L 5.292969 28.035156 L 5.292969 29.355469 L 7.9375 29.355469 Z M 7.9375 28.035156 "/>
<path style=" stroke:none;fill-rule:nonzero;fill:url(#radial2);" d="M 7.9375 28.035156 L 5.292969 28.035156 L 5.292969 26.710938 L 7.9375 26.710938 Z M 7.9375 28.035156 "/>
<path style=" stroke:none;fill-rule:nonzero;fill:url(#radial3);" d="M 23.816406 28.035156 L 26.460938 28.035156 L 26.460938 29.355469 L 23.816406 29.355469 Z M 23.816406 28.035156 "/>
<path style=" stroke:none;fill-rule:nonzero;fill:url(#linear1);" d="M 6.613281 2.894531 L 25.136719 2.894531 C 25.867188 2.894531 26.460938 3.488281 26.460938 4.21875 L 26.460938 26.710938 C 26.460938 27.441406 25.867188 28.035156 25.136719 28.035156 L 6.613281 28.035156 C 5.882812 28.035156 5.292969 27.441406 5.292969 26.710938 L 5.292969 4.21875 C 5.292969 3.488281 5.882812 2.894531 6.613281 2.894531 Z M 6.613281 2.894531 "/>
<path style="fill-rule:nonzero;fill:url(#linear2);stroke-width:11.338583;stroke-linecap:round;stroke-linejoin:miter;stroke:rgb(12.941177%,12.941177%,12.941177%);stroke-opacity:1;stroke-miterlimit:4;" d="M 399.883094 175.022665 C 355.714081 175.022665 320.048194 210.688553 320.048194 255.093763 L 320.048194 1615.121439 C 320.048194 1659.52665 355.714081 1695.192537 399.883094 1695.192537 L 520.10784 1695.192537 L 520.10784 175.022665 Z M 399.883094 175.022665 " transform="matrix(0.016538,0,0,0.016538,0,0)"/>
<path style=" stroke:none;fill-rule:nonzero;fill:rgb(0%,0%,0%);fill-opacity:0.196078;" d="M 6.613281 27.960938 C 5.882812 27.960938 5.292969 27.367188 5.292969 26.636719 L 5.292969 26.472656 C 5.292969 27.203125 5.882812 27.792969 6.613281 27.792969 L 25.136719 27.792969 C 25.871094 27.792969 26.460938 27.203125 26.460938 26.472656 L 26.460938 26.636719 C 26.460938 27.367188 25.871094 27.960938 25.136719 27.960938 Z M 6.613281 27.960938 "/>
<path style=" stroke:none;fill-rule:nonzero;fill:rgb(100%,100%,100%);fill-opacity:0.392157;" d="M 6.613281 2.972656 C 5.882812 2.972656 5.292969 3.5625 5.292969 4.292969 L 5.292969 4.460938 C 5.292969 3.726562 5.882812 3.136719 6.613281 3.136719 L 25.136719 3.136719 C 25.871094 3.136719 26.460938 3.726562 26.460938 4.460938 L 26.460938 4.292969 C 26.460938 3.5625 25.871094 2.972656 25.136719 2.972656 Z M 6.613281 2.972656 "/>
<path style=" stroke:none;fill-rule:nonzero;fill:rgb(12.941177%,12.941177%,12.941177%);fill-opacity:1;" d="M 6.617188 2.800781 C 5.832031 2.800781 5.199219 3.4375 5.199219 4.21875 L 5.199219 26.710938 C 5.199219 27.496094 5.832031 28.128906 6.617188 28.128906 L 25.136719 28.128906 C 25.921875 28.128906 26.554688 27.496094 26.554688 26.710938 L 26.554688 4.21875 C 26.554688 3.4375 25.921875 2.800781 25.136719 2.800781 Z M 6.617188 2.988281 L 25.136719 2.988281 C 25.820312 2.988281 26.367188 3.535156 26.367188 4.21875 L 26.367188 26.710938 C 26.367188 27.394531 25.820312 27.941406 25.136719 27.941406 L 6.617188 27.941406 C 5.933594 27.941406 5.386719 27.394531 5.386719 26.710938 L 5.386719 4.21875 C 5.386719 3.535156 5.933594 2.988281 6.617188 2.988281 Z M 6.617188 2.988281 "/>
<path style=" stroke:none;fill-rule:nonzero;fill:url(#linear3);" d="M 12.238281 9.511719 C 11.6875 9.511719 11.246094 9.953125 11.246094 10.503906 L 11.246094 17.78125 C 11.246094 18.328125 11.6875 18.773438 12.238281 18.773438 L 19.574219 18.773438 L 22.027344 21.222656 C 22.441406 21.636719 23.148438 21.34375 23.148438 20.757812 L 23.148438 18.71875 C 23.539062 18.582031 23.816406 18.214844 23.816406 17.78125 L 23.816406 10.503906 C 23.816406 9.953125 23.371094 9.511719 22.824219 9.511719 Z M 12.238281 9.511719 "/>
<path style=" stroke:none;fill-rule:nonzero;fill:rgb(0%,0%,0%);fill-opacity:0.235294;" d="M 12.238281 9.511719 C 11.6875 9.511719 11.246094 9.953125 11.246094 10.503906 L 11.246094 10.835938 C 11.246094 10.285156 11.6875 9.84375 12.238281 9.84375 L 22.824219 9.84375 C 23.371094 9.84375 23.816406 10.285156 23.816406 10.835938 L 23.816406 10.503906 C 23.816406 9.953125 23.371094 9.511719 22.824219 9.511719 Z M 12.238281 9.511719 "/>
<path style=" stroke:none;fill-rule:nonzero;fill:rgb(100%,100%,100%);fill-opacity:0.392157;" d="M 11.246094 17.835938 L 11.246094 18.109375 C 11.246094 18.660156 11.6875 19.101562 12.238281 19.101562 L 19.574219 19.101562 L 22.027344 21.554688 C 22.441406 21.96875 23.148438 21.675781 23.148438 21.089844 L 23.148438 20.8125 C 23.148438 21.398438 22.441406 21.691406 22.027344 21.277344 L 19.574219 18.828125 L 12.238281 18.828125 C 11.6875 18.828125 11.246094 18.386719 11.246094 17.835938 Z M 23.816406 17.835938 C 23.816406 18.269531 23.539062 18.636719 23.148438 18.773438 L 23.148438 19.046875 C 23.539062 18.914062 23.816406 18.546875 23.816406 18.109375 Z M 23.816406 17.835938 "/>
<path style="fill:none;stroke-width:3;stroke-linecap:round;stroke-linejoin:round;stroke:rgb(12.941177%,12.941177%,12.941177%);stroke-opacity:1;stroke-miterlimit:4;" d="M 195.793803 -62.827032 C 186.982144 -62.827032 179.920318 -55.765206 179.920318 -46.953548 L 179.920318 69.472834 C 179.920318 78.221999 186.982144 85.346318 195.793803 85.346318 L 313.157595 85.346318 L 352.403847 124.530076 C 359.028215 131.154444 370.339634 126.467391 370.339634 117.093287 L 370.339634 84.471402 C 376.589038 82.284111 381.026114 76.409672 381.026114 69.472834 L 381.026114 -46.953548 C 381.026114 -55.765206 373.901794 -62.827032 365.15263 -62.827032 Z M 195.793803 -62.827032 " transform="matrix(0.062506,0,0,0.062506,0,13.438783)"/>
</g>
</svg>
